X:135
T:Slip simple chords 7
M:3/4
L:1/8
K:Bb
[B2G,2B,2D2] BB AG | A3[B2G,2B,2D2]B | BA GA Bc | [B2G,2B,2D2] BB AG | AB c[d2G,2B,2D2]d |
dc B2<c2 | [d2G,2B,2D2] dd cB | cd e[d2G,2B,2D2]d | dc Bc de |
[dG,B,D]e fe dc | BA G[A2D,2^F,2A,2C2]A | AB c2<d2 | [B2G,2B,2D2] BB AG |
A3[B2G,2B,2D2]B | BA GA Bc | [B2G,2B,2D2] BB AG | AB c[d2G,2B,2D2]d |
dc B2<c2 | [d2G,2B,2D2] dd cB | cd e[d2G,2B,2D2]d | dc Bc de |
[dG,B,D]e fe dc | BA G[A2D,2^F,2A,2C2]A | AB c2<d2 | [d2G,2B,2D2] dB2B |
G2 G[^F2D,2F,2A,2]A | d2 ^FA2d | [^F2D,2F,2A,2] Ad2A | d3[d2G,2B,2D2]d |
B2 BG2G | [^FD,F,A,C]G AF GA | G3[d2G,2B,2D2]d | B2 BG2G |
[^F2D,2F,2A,2] Ad2F | A2 d[^F2D,2F,2A,2]A | d2 A2<d2 | [d2G,2B,2D2] dB2B |
G2 G[^FD,F,A,C] GA | ^FG A2<G2 | [^FD,F,A,]G Ad2c | B2 A[GG,B,D] AB |
GA BG AB | [G2G,2B,2D2] Bd2G | B2 d[^FD,F,A,] GA | d2 cB2A |
[c2G,,2] [BG,B,D][A2G,,2][GG,B,D] | [B2G,,2] [AG,B,D][G2G,,2][^FG,B,D] | [A2D,,2] [GD,^F,A,C][A2D,,2][D,F,A,C] |


